Adwaita++/actions/symbolic/tools-media-optical-format-symbolic.svg

<svg xmlns="http://www.w3.org/2000/svg" width="16" height="16" viewBox="0 0 16 16">
 <defs>
  <style id="current-color-scheme" type="text/css">
   .ColorScheme-Text { color:#474747; } .ColorScheme-Highlight { color:#4285f4; }
  </style>
 </defs>
 <path style="fill:currentColor" class="ColorScheme-Text" d="M 8 1 C 4.1577 1 1 4.1577 1 8 C 1 11.8423 4.1577 15 8 15 C 11.8423 15 15 11.8423 15 8 C 15 4.1577 11.8423 1 8 1 z M 8 6 C 9.0986 6 10 6.90135 10 8 C 10 9.09865 9.09865 10 8 10 C 6.90135 10 6 9.09864 6 8 C 6 6.90136 6.90135 6 8 6 z"/>
</svg>

<svg height="16" viewBox="0 0 16 16" width="16" xmlns="http://www.w3.org/2000/svg">
  <path d="m8 1c-3.8423 0-7 3.1577-7 7s3.1577 7 7 7 7-3.1577 7-7-3.1577-7-7-7zm0 5c1.0986 0 2 .90135 2 2s-.90135 2-2 2-2-.90136-2-2 .90135-2 2-2z" fill="#474747"/>
</svg>
